X:170
T:I Lawr a'r Ffrancwyr - Down with the French
M:6/8
L:1/8
Q:120
C:Trad.
R:Jig
K:G
d2 B d2 B | GAG B3 | c2 B c2 B | ABG FED | d2 B d2 B
|
GAG B3|AcB AGF|G3 G3:||:A2 A B2 G|FGE D3|GDG BGB|
d2 B G2 B | A2 A B2 G | FGE D3 | AcB AGF | G3 G3 :||
